X:228
T: ICH GIENG WOL NAECHETN SPAETE
N: E0815
O: Europa, Mitteleuropa, Deutschland, Schlesien, Hainau
R: Kilt - Lied
M: 2/4
L: 1/16
K: Bb
F2 | B2B2B2dc | B2G2F2
B2 | G2E2F2c2 | B4z2
B2 | c2B2c2df | e2d2c2
d2 | B2d2c2B2 | A2G2F2
B2 | G2E2F2c2 | B4z2

